X:380
T:The Salamanca
M:C
L:1/8
K:D
dB|AD (3FED AD (3FED|ABde fedc|BE E2 BE E2|Beed cdeg|
fB B2 fB B2|faef dfag|faec dBAG|FAEA D2 :|
f|afda bgeg|fded dcBc|Ad d2 defg|a2 gb a2 fg|
a3 f gfeg|fdec dfag|fded dBAG|FAEA D2 :|
